!!!COM: Music21
!!!OTL: Mazurca de Bretoña
!!!OMV: pezas_mazurcas_mazurca-de-bretona_mazurca-de-bretona-partitura.musicxml
**kern
*I"Bagpipes
*I'Bag
*clefG^2
*k[]
*M3/4
=1
!LO:TX:a:t=Allegro
*MM132
!LO:TX:a:t=[quarter]=132
2r
4cc
=||
4ee
8ccL
8eeJ
8ccL
8eeJ
=
4gg
4dd
4dd
=
4gg
8ddL
8ggJ
8ddL
8ggJ
=
4ee
4cc
4cc
=
4ee
8ccL
8eeJ
8ccL
8eeJ
=
4gg
4dd
4dd
=
4aa
8ggL
8ffJ
8eeL
8ddJ
=
2cc
4cc
!!linebreak:original
=||
4ee
8ccL
8eeJ
8ccL
8eeJ
=
4gg
4dd
4dd
=
4gg
8ddL
8ggJ
8ddL
8ggJ
=
4ee
4cc
4cc
=
4ee
8ccL
8eeJ
8ccL
8eeJ
=
4gg
4dd
4dd
=
4aa
8ggL
8ffJ
8eeL
8ddJ
!!linebreak:original
=
2cc
4gg
=||
4ccc
8bbL
8aaJ
8ggL
8ffJ
=
4ee
8ccL
8eeJ
8ccL
8eeJ
=
4gg
8ddL
8ffJ
8eeL
8ddJ
=
4ee
4cc
4gg
=
4ccc
8bbL
8aaJ
8ggL
8ffJ
=
4ee
8ccL
8eeJ
8ccL
8eeJ
=
4gg
8ddL
8ffJ
8eeL
8ddJ
=
2cc
4gg
!!linebreak:original
=||
4ccc
8bbL
8aaJ
8ggL
8ffJ
=
4ee
8ccL
8eeJ
8ccL
8eeJ
=
4gg
8ddL
8ffJ
8eeL
8ddJ
=
4ee
4cc
4gg
=
4ccc
8bbL
8aaJ
8ggL
8ffJ
=
4ee
8ccL
8eeJ
8ccL
8eeJ
!!linebreak:original
=
4gg
8ddL
8ffJ
8eeL
8ddJ
=||
2cc
4cc
=||
[2.cc
=
8cc]
8r
2r
==
*-
